src/assets/img/icons/duotone-icons/Devices/Bluetooth.svg

<?xml version="1.0" encoding="UTF-8"?>
<svg width="24px" height="24px" viewBox="0 0 24 24" version="1.1" xmlns="http://www.w3.org/2000/svg" xmlns:xlink="http://www.w3.org/1999/xlink">
    <!-- Generator: Sketch 52.2 (67145) - http://www.bohemiancoding.com/sketch -->
    <title>Stockholm-icons / Devices / Bluetooth</title>
    <desc>Created with Sketch.</desc>
    <g id="Stockholm-icons-/-Devices-/-Bluetooth" stroke="none" stroke-width="1" fill="none" fill-rule="evenodd">
        <rect id="bound" x="0" y="0" width="24" height="24"></rect>
        <path d="M12,13.8453624 L12,18.758963 L15.3125397,16.8266482 L12,13.8453624 Z M10,12.0453624 L6.33103527,8.74329415 C5.92052525,8.37383513 5.88724683,7.74154529 6.25670585,7.33103527 C6.62616487,6.92052525 7.25845471,6.88724683 7.66896473,7.25670585 L17.6689647,16.2567059 C18.172608,16.7099848 18.0891527,17.5223646 17.503871,17.8637789 L11.503871,21.3637789 C10.8372144,21.7526619 10,21.2717908 10,20.5 L10,12.0453624 Z" id="Path-20-Copy" fill="#335EEA" opacity="0.3"></path>
        <path d="M12,10.4375595 L15.3984747,7.54885603 L12,5 L12,10.4375595 Z M10,3 C10,2.17595468 10.9407637,1.70557281 11.6,2.2 L17.6,6.7 C18.1131546,7.08486597 18.1363893,7.84650959 17.6476484,8.26193932 L7.64764842,16.7619393 C7.22684095,17.1196257 6.59574703,17.0684559 6.23806068,16.6476484 C5.88037434,16.226841 5.93154411,15.595747 6.35235158,15.2380607 L10,12.1375595 L10,3 Z" id="Path-20" fill="#335EEA"></path>
    </g>
</svg>

<svg width="24" height="24" viewBox="0 0 24 24" xmlns="http://www.w3.org/2000/svg"><g fill="none" fill-rule="evenodd"><path d="M0 0h24v24H0z"/><path d="M12 13.845v4.914l3.313-1.932L12 13.845zm-2-1.8L6.331 8.743a1 1 0 011.338-1.486l10 9a1 1 0 01-.165 1.607l-6 3.5A1 1 0 0110 20.5v-8.455z" fill="#335EEA" opacity=".3"/><path d="M12 10.438l3.398-2.89L12 5v5.438zM10 3a1 1 0 011.6-.8l6 4.5a1 1 0 01.048 1.562l-10 8.5a1 1 0 11-1.296-1.524l3.648-3.1V3z" fill="#335EEA"/></g></svg>
